packages/gestalt-icons-android/vr-theme/ic_vr_service-etsy_gestalt.svg

<svg width="24" height="24" viewBox="0 0 24 24" fill="none" xmlns="http://www.w3.org/2000/svg">
<path fill-rule="evenodd" clip-rule="evenodd" d="M8.902 3.242C8.902 2.943 8.932 2.764 9.436 2.764H16.223C17.409 2.764 18.061 3.78 18.535 5.693L18.921 7.218H20.077C20.284 2.883 20.462 1 20.462 1C20.462 1 17.557 1.329 15.838 1.329H7.153L2.5 1.179V2.435L4.07 2.734C5.167 2.943 5.434 3.182 5.523 4.199C5.523 4.199 5.612 7.188 5.612 12.12C5.612 17.052 5.523 20.011 5.523 20.011C5.523 20.908 5.167 21.237 4.07 21.446L2.5 21.745V23L7.153 22.851H14.919C16.668 22.851 20.729 23 20.729 23C20.818 21.924 21.411 17.052 21.5 16.514H20.403L19.247 19.174C18.328 21.266 16.994 21.416 15.512 21.416H11.095C9.613 21.416 8.902 20.818 8.902 19.533V12.718C8.902 12.718 12.192 12.718 13.259 12.807C14.089 12.867 14.593 13.106 14.86 14.272L15.216 15.826H16.49L16.401 11.91L16.579 7.965H15.304L14.89 9.699C14.623 10.834 14.445 11.044 13.289 11.163C11.777 11.313 8.902 11.283 8.902 11.283V3.242Z" fill="black"/>
</svg>

<svg xmlns="http://www.w3.org/2000/svg" width="24" height="24"><path d="M8.9 3.24c0-.3.03-.48.54-.48h6.78c1.19 0 1.84 1.02 2.32 2.93l.38 1.53h1.16c.2-4.34.38-6.22.38-6.22s-2.9.33-4.62.33H7.15L2.5 1.18v1.26l1.57.3c1.1.2 1.36.44 1.45 1.46 0 0 .1 2.99.1 7.92s-.1 7.9-.1 7.9c0 .89-.35 1.22-1.45 1.43l-1.57.3V23l4.65-.15h7.77c1.75 0 5.8.15 5.8.15.1-1.08.7-5.95.78-6.49h-1.1l-1.15 2.66c-.92 2.1-2.26 2.25-3.74 2.25H11.1c-1.49 0-2.2-.6-2.2-1.89v-6.81s3.3 0 4.36.09c.83.06 1.33.3 1.6 1.46l.36 1.56h1.27l-.09-3.92.18-3.94H15.3l-.4 1.73c-.27 1.13-.44 1.34-1.6 1.46-1.51.15-4.39.12-4.39.12z"/></svg>
